pidgin/pixmaps/emotes/default/24/scalable/shout.svg

<?xml version="1.0" encoding="UTF-8" standalone="no"?>
<!-- Created with Inkscape (http://www.inkscape.org/) -->

<svg
   xmlns:dc="http://purl.org/dc/elements/1.1/"
   xmlns:cc="http://creativecommons.org/ns#"
   xmlns:rdf="http://www.w3.org/1999/02/22-rdf-syntax-ns#"
   xmlns:svg="http://www.w3.org/2000/svg"
   xmlns="http://www.w3.org/2000/svg"
   xmlns:xlink="http://www.w3.org/1999/xlink"
   xmlns:sodipodi="http://sodipodi.sourceforge.net/DTD/sodipodi-0.dtd"
   xmlns:inkscape="http://www.inkscape.org/namespaces/inkscape"
   width="24"
   height="24"
   id="svg2"
   sodipodi:version="0.32"
   inkscape:version="0.48.5 r10040"
   version="1.0"
   sodipodi:docname="shout.svg"
   inkscape:export-filename="/home/steve/src/hg/pidgin/pidgin/pidgin/pixmaps/emotes/default/24/scalable/path1307.png"
   inkscape:export-xdpi="90"
   inkscape:export-ydpi="90"
   inkscape:output_extension="org.inkscape.output.svg.inkscape">
  <defs
     id="defs4">
    <linearGradient
       id="linearGradient9179">
      <stop
         style="stop-color:#4f371a;stop-opacity:0.97254902;"
         offset="0"
         id="stop9181" />
      <stop
         style="stop-color:#ad8248;stop-opacity:0.96470588;"
         offset="1"
         id="stop9183" />
    </linearGradient>
    <linearGradient
       id="linearGradient9171">
      <stop
         style="stop-color:#edd400;stop-opacity:1;"
         offset="0"
         id="stop9173" />
      <stop
         style="stop-color:#ff9422;stop-opacity:1;"
         offset="1"
         id="stop9175" />
    </linearGradient>
    <linearGradient
       id="linearGradient3104">
      <stop
         style="stop-color:#eeeeec;stop-opacity:1;"
         offset="0"
         id="stop3106" />
      <stop
         style="stop-color:#eeeeec;stop-opacity:0;"
         offset="1"
         id="stop3108" />
    </linearGradient>
    <radialGradient
       inkscape:collect="always"
       xlink:href="#linearGradient3104"
       id="radialGradient3114"
       cx="5.588686"
       cy="17.183115"
       fx="5.588686"
       fy="17.183115"
       r="9.975256"
       gradientUnits="userSpaceOnUse"
       gradientTransform="matrix(-0.99399656,1.0132041,-1.0209557,-1.0015021,34.62613,12.445313)" />
    <filter
       inkscape:collect="always"
       x="-0.27879594"
       width="1.5575919"
       y="-0.78248726"
       height="2.5649745"
       id="filter3405">
      <feGaussianBlur
         inkscape:collect="always"
         stdDeviation="1.5438116"
         id="feGaussianBlur3407" />
    </filter>
    <linearGradient
       id="linearGradient3263"
       inkscape:collect="always">
      <stop
         id="stop3265"
         offset="0"
         style="stop-color:#555753;stop-opacity:1;" />
      <stop
         id="stop3267"
         offset="1"
         style="stop-color:#555753;stop-opacity:0;" />
    </linearGradient>
    <linearGradient
       inkscape:collect="always"
       xlink:href="#linearGradient3263"
       id="linearGradient2388"
       gradientUnits="userSpaceOnUse"
       x1="12.845698"
       y1="16.037401"
       x2="10.698112"
       y2="15.449714" />
    <radialGradient
       inkscape:collect="always"
       xlink:href="#linearGradient9171"
       id="radialGradient9177"
       cx="11.806158"
       cy="10.983024"
       fx="11.806158"
       fy="10.983024"
       r="10.501386"
       gradientUnits="userSpaceOnUse" />
    <linearGradient
       inkscape:collect="always"
       xlink:href="#linearGradient9179"
       id="linearGradient9185"
       x1="1.304772"
       y1="10.983024"
       x2="22.307544"
       y2="10.983024"
       gradientUnits="userSpaceOnUse" />
  </defs>
  <sodipodi:namedview
     id="base"
     pagecolor="#ffffff"
     bordercolor="#666666"
     borderopacity="1.0"
     inkscape:pageopacity="0.0"
     inkscape:pageshadow="2"
     inkscape:zoom="15.839192"
     inkscape:cx="11.494979"
     inkscape:cy="11.540302"
     inkscape:document-units="px"
     inkscape:current-layer="layer1"
     showgrid="true"
     fill="#fce94f"
     inkscape:window-width="1012"
     inkscape:window-height="834"
     inkscape:window-x="-2"
     inkscape:window-y="154"
     inkscape:window-maximized="0" />
  <metadata
     id="metadata7">
    <rdf:RDF>
      <cc:Work
         rdf:about="">
        <dc:format>image/svg+xml</dc:format>
        <dc:type
           rdf:resource="http://purl.org/dc/dcmitype/StillImage" />
        <dc:title></dc:title>
      </cc:Work>
    </rdf:RDF>
  </metadata>
  <g
     inkscape:label="Layer 1"
     inkscape:groupmode="layer"
     id="layer1"
     style="display:inline">
    <path
       sodipodi:type="arc"
       style="opacity:0.64044949;fill:#2e3436;fill-opacity:1;stroke:none;filter:url(#filter3405)"
       id="path3140"
       sodipodi:cx="10.748654"
       sodipodi:cy="10.457643"
       sodipodi:rx="6.6449099"
       sodipodi:ry="2.3675451"
       d="m 17.393564,10.457643 a 6.6449099,2.3675451 0 1 1 -13.2898195,0 6.6449099,2.3675451 0 1 1 13.2898195,0 z"
       transform="matrix(1.2039291,0,0,1.055946,-0.9406174,8.4572942)" />
    <path
       sodipodi:type="arc"
       style="fill:url(#radialGradient9177);fill-opacity:1;stroke:url(#linearGradient9185);stroke-width:1.05226015;stroke-miterlimit:4;stroke-opacity:1;stroke-dasharray:none"
       id="path1307"
       sodipodi:cx="11.806158"
       sodipodi:cy="10.983024"
       sodipodi:rx="9.975256"
       sodipodi:ry="9.975256"
       d="m 21.781414,10.983024 a 9.975256,9.975256 0 1 1 -19.9505119,0 9.975256,9.975256 0 1 1 19.9505119,0 z"
       transform="matrix(0.952236,0,0,0.952236,0.757713,1.541608)"
       inkscape:export-xdpi="108.01644"
       inkscape:export-ydpi="108.01644" />
    <path
       sodipodi:type="arc"
       style="opacity:0.79545456;fill:url(#radialGradient3114);fill-opacity:1;stroke:none"
       id="path3102"
       sodipodi:cx="11.806158"
       sodipodi:cy="10.983024"
       sodipodi:rx="9.975256"
       sodipodi:ry="9.975256"
       d="m 21.781414,10.983024 a 9.975256,9.975256 0 1 1 -19.9505119,0 9.975256,9.975256 0 1 1 19.9505119,0 z"
       transform="matrix(0.8019,0,0,0.801938,2.532654,3.191833)" />
    <path
       sodipodi:type="arc"
       style="opacity:0.64044949;fill:none;stroke:#ffffff;stroke-width:1.17343903;stroke-miterlimit:4;stroke-opacity:1;stroke-dasharray:none"
       id="path2184"
       sodipodi:cx="11.806158"
       sodipodi:cy="10.983024"
       sodipodi:rx="9.975256"
       sodipodi:ry="9.975256"
       d="m 21.781414,10.983024 a 9.975256,9.975256 0 1 1 -19.9505119,0 9.975256,9.975256 0 1 1 19.9505119,0 z"
       transform="matrix(0.852176,0,0,0.852216,1.93909,2.639626)" />
    <path
       style="fill:#eeeeec;fill-opacity:1;stroke:#fea523;stroke-width:1;stroke-miterlimit:4;stroke-opacity:1"
       d="m 11.499998,10 c 0,1.38 -1.119999,2.5 -2.4999998,2.5 -1.3800001,0 -2.5000003,-1.12 -2.5000003,-2.5 0,-1.38 1.1200002,-2.5 2.5000003,-2.5 1.3800008,0 2.4999998,1.12 2.4999998,2.5 z"
       id="path3154"
       inkscape:connector-curvature="0" />
    <path
       sodipodi:type="arc"
       style="fill:#2e3436;fill-opacity:1;stroke:none"
       id="path2172"
       sodipodi:cx="9.7069349"
       sodipodi:cy="9.6526775"
       sodipodi:rx="1.0259361"
       sodipodi:ry="1.9413869"
       d="m 10.732871,9.6526775 a 1.0259361,1.9413869 0 1 1 -2.0518722,0 1.0259361,1.9413869 0 1 1 2.0518722,0 z"
       transform="matrix(0.9747196,0,0,0.7726436,0.5384595,3.0419202)" />
    <path
       sodipodi:type="arc"
       style="fill:#eeeeec;fill-opacity:1;stroke:#fea523;stroke-width:0.56451595;stroke-miterlimit:4;stroke-opacity:1;stroke-dasharray:none"
       id="path3152"
       sodipodi:cx="9.7069349"
       sodipodi:cy="9.6526775"
       sodipodi:rx="1.0259361"
       sodipodi:ry="1.9413869"
       d="m 10.732871,9.6526775 a 1.0259361,1.9413869 0 1 1 -2.0518722,0 1.0259361,1.9413869 0 1 1 2.0518722,0 z"
       transform="matrix(2.4367992,0,0,1.2877391,-8.6538516,-2.4301299)" />
    <path
       sodipodi:type="arc"
       style="fill:#2e3436;fill-opacity:1;stroke:none"
       id="path3148"
       sodipodi:cx="9.7069349"
       sodipodi:cy="9.6526775"
       sodipodi:rx="1.0259361"
       sodipodi:ry="1.9413869"
       d="m 10.732871,9.6526775 a 1.0259361,1.9413869 0 1 1 -2.0518722,0 1.0259361,1.9413869 0 1 1 2.0518722,0 z"
       transform="matrix(0.9747195,0,0,0.7726435,4.5384605,3.0419215)" />
    <path
       sodipodi:type="arc"
       style="opacity:0.64044949;fill:none;stroke:#f57900;stroke-width:0.73675901;stroke-miterlimit:4;stroke-opacity:1;stroke-dasharray:none"
       id="path2228"
       sodipodi:cx="8.3258924"
       sodipodi:cy="9.2232141"
       sodipodi:rx="1.2276785"
       sodipodi:ry="1.7410715"
       d="M 7.2133909,8.4869402 A 1.2276785,1.7410715 0 0 1 9.288462,8.1425499"
       transform="matrix(1.7149028,-0.8212993,-0.5791212,-0.7969085,6.0447028,19.972837)"
       sodipodi:start="3.5782199"
       sodipodi:end="5.6135639"
       sodipodi:open="true" />
    <path
       sodipodi:type="arc"
       style="opacity:0.64044949;fill:none;stroke:#f57900;stroke-width:0.73675901;stroke-miterlimit:4;stroke-opacity:1;stroke-dasharray:none"
       id="path2230"
       sodipodi:cx="8.3258924"
       sodipodi:cy="9.2232141"
       sodipodi:rx="1.2276785"
       sodipodi:ry="1.7410715"
       d="M 7.2133909,8.4869402 A 1.2276785,1.7410715 0 0 1 9.288462,8.1425499"
       transform="matrix(1.7933657,0.6318731,0.1539989,-0.9729999,-7.7432273,9.3500509)"
       sodipodi:start="3.5782199"
       sodipodi:end="5.6135639"
       sodipodi:open="true" />
    <path
       sodipodi:type="arc"
       style="fill:#2e3436;fill-opacity:1;stroke:none"
       id="path3259"
       sodipodi:cx="11.830358"
       sodipodi:cy="15.741072"
       sodipodi:rx="2.0982144"
       sodipodi:ry="1.7857143"
       d="m 13.928572,15.741072 a 2.0982144,1.7857143 0 1 1 -4.1964288,0 2.0982144,1.7857143 0 1 1 4.1964288,0 z"
       transform="matrix(1.4297873,0,0,1.3999999,-4.9148947,-5.5374983)" />
    <path
       sodipodi:type="arc"
       style="fill:url(#linearGradient2388);fill-opacity:1;stroke:none"
       id="path3261"
       sodipodi:cx="11.830358"
       sodipodi:cy="15.741072"
       sodipodi:rx="2.0982144"
       sodipodi:ry="1.7857143"
       d="m 13.928572,15.741072 a 2.0982144,1.7857143 0 1 1 -4.1964288,0 2.0982144,1.7857143 0 1 1 4.1964288,0 z"
       transform="matrix(1.4297873,0,0,1.3999999,-4.9148947,-5.5374983)" />
  </g>
</svg>

<?xml version="1.0" encoding="UTF-8" standalone="no"?>
<!-- Created with Inkscape (http://www.inkscape.org/) -->
<svg
   xmlns:dc="http://purl.org/dc/elements/1.1/"
   xmlns:cc="http://creativecommons.org/ns#"
   xmlns:rdf="http://www.w3.org/1999/02/22-rdf-syntax-ns#"
   xmlns:svg="http://www.w3.org/2000/svg"
   xmlns="http://www.w3.org/2000/svg"
   xmlns:xlink="http://www.w3.org/1999/xlink"
   xmlns:sodipodi="http://sodipodi.sourceforge.net/DTD/sodipodi-0.dtd"
   xmlns:inkscape="http://www.inkscape.org/namespaces/inkscape"
   width="24"
   height="24"
   id="svg2"
   sodipodi:version="0.32"
   inkscape:version="0.46"
   version="1.0"
   sodipodi:docbase="/home/hbons/Desktop/untitled folder 1"
   sodipodi:docname="shout.svg"
   inkscape:export-filename="/home/hbons/Desktop/newstyle.png"
   inkscape:export-xdpi="90"
   inkscape:export-ydpi="90"
   inkscape:output_extension="org.inkscape.output.svg.inkscape">
  <defs
     id="defs4">
    <linearGradient
       inkscape:collect="always"
       id="linearGradient3104">
      <stop
         style="stop-color:#eeeeec;stop-opacity:1;"
         offset="0"
         id="stop3106" />
      <stop
         style="stop-color:#eeeeec;stop-opacity:0;"
         offset="1"
         id="stop3108" />
    </linearGradient>
    <radialGradient
       inkscape:collect="always"
       xlink:href="#linearGradient3104"
       id="radialGradient3114"
       cx="8.3343515"
       cy="14.186539"
       fx="8.3343515"
       fy="14.186539"
       r="9.975256"
       gradientUnits="userSpaceOnUse"
       gradientTransform="matrix(-0.9327,0.932656,-0.947494,-0.947449,33.02126,11.96667)" />
    <filter
       inkscape:collect="always"
       x="-0.27879594"
       width="1.5575919"
       y="-0.78248726"
       height="2.5649745"
       id="filter3405">
      <feGaussianBlur
         inkscape:collect="always"
         stdDeviation="1.5438116"
         id="feGaussianBlur3407" />
    </filter>
    <linearGradient
       id="linearGradient3263"
       inkscape:collect="always">
      <stop
         id="stop3265"
         offset="0"
         style="stop-color:#555753;stop-opacity:1;" />
      <stop
         id="stop3267"
         offset="1"
         style="stop-color:#555753;stop-opacity:0;" />
    </linearGradient>
    <linearGradient
       inkscape:collect="always"
       xlink:href="#linearGradient3263"
       id="linearGradient2388"
       gradientUnits="userSpaceOnUse"
       x1="12.845698"
       y1="16.037401"
       x2="10.698112"
       y2="15.449714" />
  </defs>
  <sodipodi:namedview
     id="base"
     pagecolor="#ffffff"
     bordercolor="#666666"
     borderopacity="1.0"
     inkscape:pageopacity="0.0"
     inkscape:pageshadow="2"
     inkscape:zoom="22.4"
     inkscape:cx="26.111884"
     inkscape:cy="11.540302"
     inkscape:document-units="px"
     inkscape:current-layer="layer1"
     showgrid="true"
     fill="#fce94f"
     inkscape:window-width="1440"
     inkscape:window-height="845"
     inkscape:window-x="0"
     inkscape:window-y="0" />
  <metadata
     id="metadata7">
    <rdf:RDF>
      <cc:Work
         rdf:about="">
        <dc:format>image/svg+xml</dc:format>
        <dc:type
           rdf:resource="http://purl.org/dc/dcmitype/StillImage" />
      </cc:Work>
    </rdf:RDF>
  </metadata>
  <g
     inkscape:label="Layer 1"
     inkscape:groupmode="layer"
     id="layer1">
    <path
       sodipodi:type="arc"
       style="opacity:0.64044944;fill:#2e3436;fill-opacity:1;stroke:none;stroke-width:1;stroke-miterlimit:4;stroke-dasharray:none;stroke-opacity:1;filter:url(#filter3405)"
       id="path3140"
       sodipodi:cx="10.748654"
       sodipodi:cy="10.457643"
       sodipodi:rx="6.6449099"
       sodipodi:ry="2.3675451"
       d="M 17.393564 10.457643 A 6.6449099 2.3675451 0 1 1  4.1037445,10.457643 A 6.6449099 2.3675451 0 1 1  17.393564 10.457643 z"
       transform="matrix(1.2039291,0,0,1.055946,-0.9406174,8.4572942)" />
    <path
       sodipodi:type="arc"
       style="opacity:1;fill:#edd400;fill-opacity:1;stroke:#cc6400;stroke-width:1.05276573;stroke-miterlimit:4;stroke-dasharray:none;stroke-opacity:1"
       id="path1307"
       sodipodi:cx="11.806158"
       sodipodi:cy="10.983024"
       sodipodi:rx="9.975256"
       sodipodi:ry="9.975256"
       d="M 21.781414 10.983024 A 9.975256 9.975256 0 1 1  1.8309021,10.983024 A 9.975256 9.975256 0 1 1  21.781414 10.983024 z"
       transform="matrix(0.952236,0,0,0.952236,0.757713,1.541608)" />
    <path
       sodipodi:type="arc"
       style="opacity:0.79545455;fill:url(#radialGradient3114);fill-opacity:1.0;stroke:none;stroke-width:1.05274069;stroke-miterlimit:4;stroke-dasharray:none;stroke-opacity:1"
       id="path3102"
       sodipodi:cx="11.806158"
       sodipodi:cy="10.983024"
       sodipodi:rx="9.975256"
       sodipodi:ry="9.975256"
       d="M 21.781414 10.983024 A 9.975256 9.975256 0 1 1  1.8309021,10.983024 A 9.975256 9.975256 0 1 1  21.781414 10.983024 z"
       transform="matrix(0.8019,0,0,0.801938,2.532654,3.191833)" />
    <path
       sodipodi:type="arc"
       style="opacity:0.64044944;fill:none;fill-opacity:1.0;stroke:#ffffff;stroke-width:1.17343897;stroke-miterlimit:4;stroke-dasharray:none;stroke-opacity:1"
       id="path2184"
       sodipodi:cx="11.806158"
       sodipodi:cy="10.983024"
       sodipodi:rx="9.975256"
       sodipodi:ry="9.975256"
       d="M 21.781414 10.983024 A 9.975256 9.975256 0 1 1  1.8309021,10.983024 A 9.975256 9.975256 0 1 1  21.781414 10.983024 z"
       transform="matrix(0.852176,0,0,0.852216,1.93909,2.639626)" />
    <path
       style="fill:#eeeeec;fill-opacity:1;stroke:#fea523;stroke-width:1;stroke-miterlimit:4;stroke-opacity:1"
       d="M 11.499998,10 C 11.499998,11.38 10.379999,12.5 8.9999982,12.5 C 7.6199981,12.5 6.4999979,11.38 6.4999979,10 C 6.4999979,8.62 7.6199981,7.5 8.9999982,7.5 C 10.379999,7.5 11.499998,8.62 11.499998,10 z "
       id="path3154" />
    <path
       sodipodi:type="arc"
       style="opacity:1;fill:#2e3436;fill-opacity:1;stroke:none;stroke-width:0.98640186;stroke-miterlimit:4;stroke-dasharray:none;stroke-opacity:1"
       id="path2172"
       sodipodi:cx="9.7069349"
       sodipodi:cy="9.6526775"
       sodipodi:rx="1.0259361"
       sodipodi:ry="1.9413869"
       d="M 10.732871 9.6526775 A 1.0259361 1.9413869 0 1 1  8.6809988,9.6526775 A 1.0259361 1.9413869 0 1 1  10.732871 9.6526775 z"
       transform="matrix(0.9747196,0,0,0.7726436,0.5384595,3.0419202)" />
    <path
       sodipodi:type="arc"
       style="opacity:1;fill:#eeeeec;fill-opacity:1;stroke:#fea523;stroke-width:0.56451595;stroke-miterlimit:4;stroke-dasharray:none;stroke-opacity:1"
       id="path3152"
       sodipodi:cx="9.7069349"
       sodipodi:cy="9.6526775"
       sodipodi:rx="1.0259361"
       sodipodi:ry="1.9413869"
       d="M 10.732871 9.6526775 A 1.0259361 1.9413869 0 1 1  8.6809988,9.6526775 A 1.0259361 1.9413869 0 1 1  10.732871 9.6526775 z"
       transform="matrix(2.4367992,0,0,1.2877391,-8.6538516,-2.4301299)" />
    <path
       sodipodi:type="arc"
       style="opacity:1;fill:#2e3436;fill-opacity:1;stroke:none;stroke-width:0.98640186;stroke-miterlimit:4;stroke-dasharray:none;stroke-opacity:1"
       id="path3148"
       sodipodi:cx="9.7069349"
       sodipodi:cy="9.6526775"
       sodipodi:rx="1.0259361"
       sodipodi:ry="1.9413869"
       d="M 10.732871 9.6526775 A 1.0259361 1.9413869 0 1 1  8.6809988,9.6526775 A 1.0259361 1.9413869 0 1 1  10.732871 9.6526775 z"
       transform="matrix(0.9747195,0,0,0.7726435,4.5384605,3.0419215)" />
    <path
       sodipodi:type="arc"
       style="opacity:0.64044949;fill:none;fill-opacity:1;stroke:#f57900;stroke-width:0.73675901;stroke-miterlimit:4;stroke-dasharray:none;stroke-opacity:1"
       id="path2228"
       sodipodi:cx="8.3258924"
       sodipodi:cy="9.2232141"
       sodipodi:rx="1.2276785"
       sodipodi:ry="1.7410715"
       d="M 7.2133909,8.4869402 A 1.2276785,1.7410715 0 0 1 9.288462,8.1425499"
       transform="matrix(1.7149028,-0.8212993,-0.5791212,-0.7969085,6.0447028,19.972837)"
       sodipodi:start="3.5782199"
       sodipodi:end="5.6135639"
       sodipodi:open="true" />
    <path
       sodipodi:type="arc"
       style="opacity:0.64044949;fill:none;fill-opacity:1;stroke:#f57900;stroke-width:0.73675901;stroke-miterlimit:4;stroke-dasharray:none;stroke-opacity:1"
       id="path2230"
       sodipodi:cx="8.3258924"
       sodipodi:cy="9.2232141"
       sodipodi:rx="1.2276785"
       sodipodi:ry="1.7410715"
       d="M 7.2133909,8.4869402 A 1.2276785,1.7410715 0 0 1 9.288462,8.1425499"
       transform="matrix(1.7933657,0.6318731,0.1539989,-0.9729999,-7.7432273,9.3500509)"
       sodipodi:start="3.5782199"
       sodipodi:end="5.6135639"
       sodipodi:open="true" />
    <path
       sodipodi:type="arc"
       style="fill:#2e3436;fill-opacity:1;stroke:none;stroke-width:1;stroke-miterlimit:4;stroke-dasharray:none;stroke-opacity:1"
       id="path3259"
       sodipodi:cx="11.830358"
       sodipodi:cy="15.741072"
       sodipodi:rx="2.0982144"
       sodipodi:ry="1.7857143"
       d="M 13.928572 15.741072 A 2.0982144 1.7857143 0 1 1  9.7321432,15.741072 A 2.0982144 1.7857143 0 1 1  13.928572 15.741072 z"
       transform="matrix(1.4297873,0,0,1.3999999,-4.9148947,-5.5374983)" />
    <path
       sodipodi:type="arc"
       style="fill:url(#linearGradient2388);fill-opacity:1;stroke:none;stroke-width:1;stroke-miterlimit:4;stroke-dasharray:none;stroke-opacity:1"
       id="path3261"
       sodipodi:cx="11.830358"
       sodipodi:cy="15.741072"
       sodipodi:rx="2.0982144"
       sodipodi:ry="1.7857143"
       d="M 13.928572 15.741072 A 2.0982144 1.7857143 0 1 1  9.7321432,15.741072 A 2.0982144 1.7857143 0 1 1  13.928572 15.741072 z"
       transform="matrix(1.4297873,0,0,1.3999999,-4.9148947,-5.5374983)" />
  </g>
</svg>
